lib/svg/alert.svg

<?xml version="1.0" encoding="UTF-8" standalone="no"?>
<svg width="16px" height="16px" viewBox="0 0 16 16" version="1.1" xmlns="http://www.w3.org/2000/svg" xmlns:xlink="http://www.w3.org/1999/xlink">
    <!-- Generator: Sketch 3.8.3 (29802) - http://www.bohemiancoding.com/sketch -->
    <title>alert</title>
    <desc>Created with Sketch.</desc>
    <defs></defs>
    <g id="Octicons" stroke="none" stroke-width="1" fill="none" fill-rule="evenodd">
        <g id="alert" fill="#000000">
            <path d="M8.865,1.51999998 C8.685,1.20999998 8.355,1.01999998 7.995,1.01999998 C7.635,1.01999998 7.305,1.20999998 7.125,1.51999998 L0.275000001,13.5 C0.0950000006,13.81 0.0950000006,14.19 0.275000001,14.5 C0.465000001,14.81 0.795000001,15 1.145,15 L14.845,15 C15.205,15 15.535,14.81 15.705,14.5 C15.875,14.19 15.885,13.81 15.715,13.5 L8.865,1.51999998 Z M8.995,13 L6.995,13 L6.995,11 L8.995,11 L8.995,13 L8.995,13 Z M8.995,9.99999998 L6.995,9.99999998 L6.995,5.99999998 L8.995,5.99999998 L8.995,9.99999998 L8.995,9.99999998 Z" id="Shape"></path>
        </g>
    </g>
</svg>

<svg xmlns="http://www.w3.org/2000/svg" width="16" height="16" viewBox="0 0 16 16"><path d="M8.865 1.52c-.18-.31-.51-.5-.87-.5s-.69.19-.87.5L.275 13.5c-.18.31-.18.69 0 1 .19.31.52.5.87.5h13.7c.36 0 .69-.19.86-.5.17-.31.18-.69.01-1L8.865 1.52zM8.995 13h-2v-2h2v2zm0-3h-2V6h2v4z"/></svg>
